ix/omega-square_bulk.svg

<svg viewBox="0 0 24 24" fill="none" xmlns="http://www.w3.org/2000/svg" height="1em" width="1em">
  <path opacity="0.4" d="M16.1898 2H7.81976C4.17976 2 2.00977 4.17 2.00977 7.81V16.18C2.00977 19.82 4.17976 21.99 7.81976 21.99H16.1898C19.8298 21.99 21.9998 19.82 21.9998 16.18V7.81C21.9998 4.17 19.8298 2 16.1898 2Z" fill="#292D32"/>
  <path d="M17 17.5H13.9C13.6 17.5 13.33 17.33 13.21 17.05C13.09 16.77 13.14 16.46 13.34 16.24L14.96 14.45C15.63 13.7 16.01 12.75 16.01 11.77C16.01 10.77 15.6 9.83 14.85 9.12C14.1 8.41 13.06 8 12 8C10.94 8 9.90002 8.41 9.15002 9.12C8.40002 9.83 7.98999 10.77 7.98999 11.77C7.98999 12.75 8.35998 13.7 9.03998 14.45L10.66 16.24C10.86 16.46 10.91 16.78 10.79 17.05C10.67 17.32 10.4 17.5 10.1 17.5H7C6.59 17.5 6.25 17.16 6.25 16.75C6.25 16.34 6.59 16 7 16H8.40997L7.91998 15.46C6.99998 14.44 6.48999 13.13 6.48999 11.77C6.48999 10.38 7.08 9.01003 8.12 8.03003C9.16 7.04003 10.54 6.5 12 6.5C13.46 6.5 14.84 7.04003 15.88 8.03003C16.91 9.01003 17.51 10.38 17.51 11.77C17.51 13.12 17 14.43 16.08 15.46L15.59 16H17C17.41 16 17.75 16.34 17.75 16.75C17.75 17.16 17.41 17.5 17 17.5Z" fill="#292D32"/>
</svg>

<svg viewBox="0 0 24 24" fill="none" xmlns="http://www.w3.org/2000/svg" height="1em" width="1em">
  <path opacity=".4" d="M16.19 2H7.82C4.18 2 2.01 4.17 2.01 7.81v8.37c0 3.64 2.17 5.81 5.81 5.81h8.37c3.64 0 5.81-2.17 5.81-5.81V7.81C22 4.17 19.83 2 16.19 2Z" fill="#292D32"/>
  <path d="M17 17.5h-3.1c-.3 0-.57-.17-.69-.45a.75.75 0 0 1 .13-.81l1.62-1.79c.67-.75 1.05-1.7 1.05-2.68 0-1-.41-1.94-1.16-2.65A4.182 4.182 0 0 0 12 8c-1.06 0-2.1.41-2.85 1.12-.75.71-1.16 1.65-1.16 2.65 0 .98.37 1.93 1.05 2.68l1.62 1.79a.753.753 0 0 1-.56 1.26H7c-.41 0-.75-.34-.75-.75S6.59 16 7 16h1.41l-.49-.54a5.507 5.507 0 0 1-1.43-3.69c0-1.39.59-2.76 1.63-3.74A5.595 5.595 0 0 1 12 6.5c1.46 0 2.84.54 3.88 1.53 1.03.98 1.63 2.35 1.63 3.74 0 1.35-.51 2.66-1.43 3.69l-.49.54H17c.41 0 .75.34.75.75s-.34.75-.75.75Z" fill="#292D32"/>
</svg>
